X: 3090
T: Bear Dance, The
R: polka
M: 2/4
K: Aminor
|:eA A2|eA A2|cc Bc|d2- dc/d/|
ee d>B|cc B>G|Ac B/A/G|1 A2 Ae:|2 A2 A2||
|:Ac Ac|BG G2|Ac Ac|d2- dc/d/|
ee d>B|cc B>G|Ac B/A/G|1 A2 A2:|2 A2 Ae||

